storage/app/icons/phosphoricons/thin/film-strip-thin.svg

<svg xmlns="http://www.w3.org/2000/svg" fill="currentColor" viewBox="0 0 256 256"><path d="M216 44H40a12 12 0 0 0-12 12v144a12 12 0 0 0 12 12h176a12 12 0 0 0 12-12V56a12 12 0 0 0-12-12M36 84h88v88H36Zm96-8V52h40v24Zm-8 0H84V52h40Zm0 104v24H84v-24Zm8 0h40v24h-40Zm0-8V84h88v88Zm88-116v20h-40V52h36a4 4 0 0 1 4 4M40 52h36v24H36V56a4 4 0 0 1 4-4m-4 148v-20h40v24H40a4 4 0 0 1-4-4m180 4h-36v-24h40v20a4 4 0 0 1-4 4"/></svg>

<svg xmlns="http://www.w3.org/2000/svg" viewBox="0 0 256 256" fill="currentColor"><path d="M216,44H40A12,12,0,0,0,28,56V200a12,12,0,0,0,12,12H216a12,12,0,0,0,12-12V56A12,12,0,0,0,216,44ZM36,84h88v88H36Zm96-8V52h40V76Zm-8,0H84V52h40Zm0,104v24H84V180Zm8,0h40v24H132Zm0-8V84h88v88ZM220,56V76H180V52h36A4,4,0,0,1,220,56ZM40,52H76V76H36V56A4,4,0,0,1,40,52ZM36,200V180H76v24H40A4,4,0,0,1,36,200Zm180,4H180V180h40v20A4,4,0,0,1,216,204Z"/></svg>
